; generated by PrusaSlicer 2.2.0 on 2020-06-15 at 18:37:25 UTC

; 

; external perimeters extrusion width = 0.45mm
; perimeters extrusion width = 0.45mm
; infill extrusion width = 0.45mm
; solid infill extrusion width = 0.45mm
; top infill extrusion width = 0.40mm
; support material extrusion width = 0.35mm
; first layer extrusion width = 0.42mm

M73 P0 R112
M73 Q0 S112
M201 X1000 Y1000 Z200 E5000 ; sets maximum accelerations, mm/sec^2
M203 X200 Y200 Z12 E120 ; sets maximum feedrates, mm/sec
M204 P1250 R1250 T1250 ; sets acceleration (P, T) and retract acceleration (R), mm/sec^2
M205 X8.00 Y8.00 Z0.40 E4.50 ; sets the jerk limits, mm/sec
M205 S0 T0 ; sets the minimum extruding and travel feed rate, mm/sec
M107
M862.3 P "MK3S" ; printer model check
M862.1 P0.4 ; nozzle diameter check
M115 U3.9.0 ; tell printer latest fw version
G90 ; use absolute coordinates
M83 ; extruder relative mode
M104 S230 ; set extruder temp
M140 S85 ; set bed temp
M190 S85 ; wait for bed temp
M109 S230 ; wait for extruder temp
G28 W ; home all without mesh bed level
G80 ; mesh bed leveling
G1 Y-3.0 F1000.0 ; go outside print area
G92 E0.0
G1 X60.0 E9.0 F1000.0 ; intro line
M73 Q0 S112
M73 P0 R112
G1 X100.0 E12.5 F1000.0 ; intro line
G92 E0.0
M221 S95
G21 ; set units to millimeters
G90 ; use absolute coordinates
M83 ; use relative distances for extrusion
M900 K0.12 ; Filament gcode LA 1.5
M900 K45 ; Filament gcode LA 1.0
;BEFORE_LAYER_CHANGE
G92 E0.0
;0.2


G1 E-1.40000 F2100.00000
G1 Z0.200 F10800.000
;AFTER_LAYER_CHANGE
;0.2
G1 Z0.400
G1 X98.396 Y102.096
G1 Z0.200
G1 E1.40000 F2100.00000
M204 S1000
G1 F1200.000
G1 X99.026 Y101.617 E0.02481
G1 X100.362 Y100.987 E0.04632
G1 X102.702 Y100.388 E0.07575
G1 X105.799 Y99.961 E0.09803
G1 X109.569 Y99.724 E0.11842
G1 X113.972 Y99.667 E0.13806
G1 X121.466 Y99.856 E0.23504
G1 X129.406 Y100.228 E0.24925
G1 X145.185 Y101.119 E0.49551
G1 X150.017 Y101.490 E0.15197
G1 X150.574 Y101.595 E0.01776
G1 X151.086 Y101.802 E0.01733
G1 X151.547 Y102.107 E0.01733
G1 X151.940 Y102.501 E0.01745
G1 X152.246 Y102.966 E0.01745
G1 X152.452 Y103.483 E0.01745
G1 X152.550 Y104.031 E0.01745
G1 X152.536 Y104.588 E0.01745
G1 X152.282 Y105.441 E0.02790
G1 X151.770 Y106.168 E0.02790
G1 X151.060 Y106.691 E0.02765
G1 X150.197 Y106.973 E0.02844
G1 X126.171 Y109.833 E0.75865
G1 X121.109 Y110.206 E0.15915
G1 X116.351 Y110.333 E0.14924
G1 X111.848 Y110.212 E0.14123
G1 X109.613 Y110.040 E0.07027
G1 X105.981 Y109.549 E0.11492
G1 X102.919 Y108.852 E0.09847
G1 X100.593 Y108.010 E0.07756
G1 X99.374 Y107.348 E0.04350
G1 X98.339 Y106.474 E0.04247
G1 X97.873 Y105.839 E0.02471
G1 X97.601 Y105.257 E0.02013
G1 X97.455 Y104.583 E0.02161
G1 X97.469 Y103.917 E0.02091
G1 X97.616 Y103.317 E0.01937
G1 X97.933 Y102.656 E0.02297
G1 X98.358 Y102.143 E0.02090
G1 F8640.000
G1 X99.026 Y101.617 E-0.19625
G1 X100.362 Y100.987 E-0.34111
G1 X102.702 Y100.388 E-0.55783
G1 X103.710 Y100.249 E-0.23482
G1 E-0.07000 F2100.00000
G1 Z0.400 F10800.000
G1 X152.082 Y103.560
G1 Z0.200
G1 E1.40000 F2100.00000
G1 F1200.000
G1 X152.165 Y104.517 E0.03013
G1 X151.949 Y105.264 E0.02437
G1 X151.501 Y105.904 E0.02449
G1 X150.877 Y106.361 E0.02426
G1 X150.121 Y106.603 E0.02489
G1 X126.136 Y109.457 E0.75734
G1 X121.089 Y109.830 E0.15869
G1 X116.342 Y109.956 E0.14889
G1 X111.864 Y109.835 E0.14045
G1 X109.657 Y109.666 E0.06941
G1 X106.049 Y109.178 E0.11415
G1 X103.059 Y108.499 E0.09614
G1 X100.746 Y107.665 E0.07709
G1 X99.595 Y107.042 E0.04104
G1 X98.622 Y106.225 E0.03982
G1 X98.186 Y105.628 E0.02318
G1 X97.939 Y105.080 E0.01886
G1 X97.825 Y104.492 E0.01878
G1 X97.852 Y103.904 E0.01843
G1 X98.036 Y103.274 E0.02059
G1 X98.291 Y102.798 E0.01692
G1 X98.695 Y102.333 E0.01933
G1 X99.282 Y101.899 E0.02288
G1 X100.538 Y101.326 E0.04330
G1 X102.774 Y100.758 E0.07232
G1 X105.840 Y100.336 E0.09705
G1 X109.580 Y100.101 E0.11750
G1 X113.972 Y100.044 E0.13770
G1 X118.946 Y100.144 E0.15600
G1 X126.937 Y100.481 E0.25076
G1 X143.459 Y101.391 E0.51883
G1 X149.942 Y101.861 E0.20381
G1 X150.877 Y102.118 E0.03040
G1 X151.627 Y102.713 E0.03001
G1 X152.053 Y103.507 E0.02824
G1 F8640.000
G1 X152.165 Y104.517 E-0.23464
G1 X151.949 Y105.264 E-0.17949
G1 X151.501 Y105.904 E-0.18036
G1 X150.877 Y106.361 E-0.17862
G1 X150.121 Y106.603 E-0.18329
G1 X148.515 Y106.794 E-0.37360
G1 E-0.07000 F2100.00000
G1 Z0.400 F10800.000
G1 X154.470 Y105.047
G1 Z0.200
G1 E1.40000 F2100.00000
G1 F1200.000
G1 X153.914 Y106.594 E0.05153
G1 X152.897 Y107.832 E0.05023
G1 X152.277 Y108.288 E0.02414
G1 X151.564 Y108.644 E0.02499
G1 X150.323 Y108.931 E0.03992
G1 X147.766 Y109.025 E0.08023
G1 X146.421 Y109.122 E0.04230
G1 X144.833 Y109.280 E0.05004
G1 X143.018 Y109.499 E0.05729
G1 X140.940 Y109.784 E0.06579
G1 X134.008 Y110.831 E0.21980
G1 X131.507 Y111.185 E0.07919
G1 X128.915 Y111.511 E0.08193
G1 X126.376 Y111.781 E0.08005
G1 X123.788 Y112.002 E0.08144
G1 X121.231 Y112.162 E0.08032
G1 X118.717 Y112.259 E0.07889
G1 X116.286 Y112.293 E0.07623
G1 X113.855 Y112.260 E0.07623
G1 X111.658 Y112.164 E0.06896
G1 X109.517 Y112.000 E0.06734
G1 X107.461 Y111.764 E0.06488
G1 X105.672 Y111.484 E0.05678
G1 X103.920 Y111.130 E0.05604
G1 X102.264 Y110.700 E0.05364
G1 X100.916 Y110.260 E0.04446
G1 X99.558 Y109.692 E0.04615
G1 X98.238 Y108.943 E0.04761
G1 X97.026 Y107.944 E0.04921
G1 X96.223 Y106.897 E0.04140
G1 X95.689 Y105.707 E0.04090
G1 X95.485 Y104.138 E0.04959
G1 X95.704 Y102.855 E0.04081
G1 X96.302 Y101.574 E0.04434
G1 X97.251 Y100.492 E0.04512
G1 X98.436 Y99.690 E0.04487
G1 X99.656 Y99.158 E0.04172
G1 X100.934 Y98.772 E0.04186
G1 X102.319 Y98.467 E0.04448
G1 X103.832 Y98.220 E0.04805
G1 X105.625 Y98.010 E0.05661
G1 X107.553 Y97.860 E0.06063
G1 X109.525 Y97.765 E0.06190
G1 X111.662 Y97.715 E0.06704
G1 X114.062 Y97.708 E0.07525
G1 X116.544 Y97.743 E0.07784
G1 X121.633 Y97.902 E0.15963
G1 X126.958 Y98.142 E0.16713
G1 X137.237 Y98.690 E0.32274
G1 X145.356 Y99.166 E0.25502
G1 X149.206 Y99.436 E0.12100
G1 X150.798 Y99.610 E0.05021
G1 X151.920 Y100.000 E0.03725
G1 X152.676 Y100.462 E0.02778
G1 X153.845 Y101.767 E0.05494
G1 X154.224 Y102.521 E0.02645
G1 X154.457 Y103.332 E0.02646
G1 X154.470 Y104.987 E0.05190
G1 X154.103 Y104.954 F10800.000
G1 F1200.000
G1 X153.601 Y106.382 E0.04746
G1 X152.655 Y107.543 E0.04695
G1 X152.067 Y107.974 E0.02286
G1 X151.417 Y108.296 E0.02275
G1 X150.258 Y108.560 E0.03727
G1 X147.746 Y108.648 E0.07880
G1 X146.388 Y108.747 E0.04268
G1 X144.791 Y108.905 E0.05032
G1 X142.970 Y109.125 E0.05751
G1 X140.886 Y109.411 E0.06597
G1 X133.953 Y110.458 E0.21985
G1 X131.456 Y110.811 E0.07906
G1 X128.869 Y111.137 E0.08174
G1 X126.338 Y111.406 E0.07982
G1 X123.758 Y111.626 E0.08118
G1 X121.210 Y111.785 E0.08005
G1 X118.705 Y111.882 E0.07860
G1 X116.289 Y111.916 E0.07576
G1 X113.863 Y111.883 E0.07606
G1 X111.684 Y111.788 E0.06840
G1 X109.549 Y111.624 E0.06713
G1 X107.508 Y111.389 E0.06442
G1 X105.734 Y111.112 E0.05629
G1 X104.010 Y110.764 E0.05516
G1 X102.364 Y110.336 E0.05330
G1 X101.040 Y109.904 E0.04368
G1 X99.734 Y109.358 E0.04439
G1 X98.464 Y108.641 E0.04571
G1 X97.283 Y107.667 E0.04801
G1 X96.557 Y106.720 E0.03741
G1 X96.059 Y105.630 E0.03759
G1 X95.863 Y104.119 E0.04776
G1 X96.070 Y102.945 E0.03736
G1 X96.604 Y101.801 E0.03959
G1 X97.483 Y100.790 E0.04202
G1 X98.603 Y100.029 E0.04244
G1 X99.796 Y99.509 E0.04081
G1 X101.036 Y99.136 E0.04059
G1 X102.385 Y98.838 E0.04333
G1 X103.880 Y98.594 E0.04749
G1 X105.658 Y98.385 E0.05613
G1 X107.574 Y98.236 E0.06026
G1 X109.536 Y98.142 E0.06160
G1 X111.669 Y98.092 E0.06691
G1 X114.058 Y98.085 E0.07491
G1 X116.534 Y98.120 E0.07763
G1 X121.620 Y98.279 E0.15954
G1 X126.939 Y98.519 E0.16693
G1 X137.215 Y99.066 E0.32267
G1 X145.333 Y99.543 E0.25497
G1 X149.176 Y99.812 E0.12079
G1 X150.735 Y99.982 E0.04917
G1 X151.775 Y100.349 E0.03457
G1 X152.454 Y100.769 E0.02504
G1 X153.519 Y101.959 E0.05008
G1 X153.879 Y102.674 E0.02510
G1 X154.088 Y103.411 E0.02400
G1 X154.103 Y104.894 E0.04652
G1 X153.737 Y104.861 F10800.000
G1 F1200.000
G1 X153.256 Y106.225 E0.04534
G1 X152.381 Y107.283 E0.04307
G1 X151.860 Y107.659 E0.02013
G1 X151.272 Y107.948 E0.02056
G1 X150.194 Y108.188 E0.03463
G1 X147.726 Y108.272 E0.07741
G1 X146.356 Y108.371 E0.04307
G1 X144.750 Y108.530 E0.05060
G1 X142.922 Y108.751 E0.05774
G1 X140.832 Y109.038 E0.06614
G1 X133.897 Y110.085 E0.21990
G1 X131.405 Y110.438 E0.07893
G1 X128.824 Y110.762 E0.08155
G1 X126.300 Y111.031 E0.07959
G1 X123.728 Y111.250 E0.08093
G1 X121.189 Y111.409 E0.07977
G1 X118.693 Y111.505 E0.07832
G1 X116.291 Y111.539 E0.07530
G1 X113.871 Y111.506 E0.07589
G1 X111.709 Y111.411 E0.06785
G1 X109.582 Y111.248 E0.06692
G1 X107.555 Y111.015 E0.06396
G1 X105.797 Y110.740 E0.05580
G1 X104.099 Y110.397 E0.05428
G1 X102.465 Y109.973 E0.05295
G1 X101.164 Y109.548 E0.04290
G1 X99.909 Y109.024 E0.04266
G1 X98.691 Y108.339 E0.04380
G1 X97.539 Y107.390 E0.04681
G1 X96.889 Y106.542 E0.03349
G1 X96.429 Y105.552 E0.03424
G1 X96.241 Y104.100 E0.04589
G1 X96.437 Y103.038 E0.03388
G1 X96.905 Y102.028 E0.03490
G1 X97.752 Y101.056 E0.04041
G1 X98.770 Y100.367 E0.03854
G1 X99.916 Y99.866 E0.03921
G1 X101.137 Y99.499 E0.04001
G1 X102.451 Y99.209 E0.04217
G1 X103.928 Y98.968 E0.04692
G1 X105.691 Y98.761 E0.05565
G1 X107.595 Y98.613 E0.05988
G1 X109.547 Y98.519 E0.06129
G1 X111.676 Y98.469 E0.06677
G1 X114.055 Y98.462 E0.07458
G1 X116.524 Y98.496 E0.07743
G1 X121.607 Y98.656 E0.15944
G1 X126.919 Y98.896 E0.16674
G1 X137.194 Y99.443 E0.32260
G1 X145.310 Y99.919 E0.25492
G1 X149.146 Y100.188 E0.12057
G1 X150.671 Y100.355 E0.04812
G1 X151.628 Y100.697 E0.03184
G1 X152.231 Y101.074 E0.02231
G1 X153.194 Y102.152 E0.04533
G1 X153.521 Y102.795 E0.02262
G1 X153.718 Y103.490 E0.02265
G1 X153.736 Y104.801 E0.04110
G1 X153.369 Y104.770 F10800.000
G1 F1200.000
G1 X152.943 Y106.012 E0.04118
G1 X152.139 Y106.993 E0.03975
G1 X151.679 Y107.327 E0.01783
G1 X151.126 Y107.599 E0.01931
G1 X150.131 Y107.815 E0.03195
G1 X147.706 Y107.895 E0.07605
G1 X146.324 Y107.995 E0.04346
G1 X144.709 Y108.155 E0.05089
G1 X142.874 Y108.377 E0.05796
G1 X140.778 Y108.665 E0.06632
G1 X133.842 Y109.712 E0.21996
G1 X131.353 Y110.064 E0.07880
G1 X128.779 Y110.388 E0.08135
G1 X126.262 Y110.656 E0.07936
G1 X123.698 Y110.874 E0.08068
G1 X121.168 Y111.032 E0.07950
G1 X118.681 Y111.128 E0.07804
G1 X116.289 Y111.162 E0.07500
G1 X113.885 Y111.129 E0.07538
G1 X111.729 Y111.035 E0.06766
G1 X109.621 Y110.873 E0.06629
G1 X107.602 Y110.641 E0.06373
G1 X105.867 Y110.370 E0.05505
G1 X104.179 Y110.029 E0.05399
G1 X102.576 Y109.612 E0.05193
G1 X101.302 Y109.197 E0.04201
G1 X100.064 Y108.680 E0.04208
G1 X98.917 Y108.037 E0.04124
G1 X97.825 Y107.143 E0.04425
G1 X97.202 Y106.330 E0.03212
G1 X96.783 Y105.420 E0.03138
G1 X96.617 Y104.140 E0.04050
G1 X96.803 Y103.130 E0.03217
G1 X97.235 Y102.213 E0.03180
G1 X97.983 Y101.355 E0.03570
G1 X98.966 Y100.689 E0.03721
G1 X100.055 Y100.217 E0.03722
G1 X101.226 Y99.865 E0.03831
G1 X102.517 Y99.580 E0.04147
G1 X103.976 Y99.342 E0.04636
G1 X105.731 Y99.136 E0.05540
G1 X107.615 Y98.989 E0.05927
G1 X109.558 Y98.896 E0.06099
G1 X111.679 Y98.846 E0.06652
G1 X114.051 Y98.839 E0.07437
G1 X116.514 Y98.873 E0.07722
G1 X121.594 Y99.033 E0.15935
G1 X126.900 Y99.272 E0.16655
G1 X137.172 Y99.819 E0.32253
G1 X145.287 Y100.296 E0.25487
G1 X149.116 Y100.564 E0.12036
G1 X150.607 Y100.727 E0.04704
G1 X151.479 Y101.044 E0.02907
G1 X152.007 Y101.378 E0.01960
G1 X152.870 Y102.346 E0.04067
G1 X153.164 Y102.916 E0.02011
G1 X153.349 Y103.570 E0.02129
G1 X153.368 Y104.710 E0.03577
G1 F8640.000
G1 X152.943 Y106.012 E-0.31630
G1 X152.139 Y106.993 E-0.29275
G1 X151.679 Y107.327 E-0.13132
G1 X151.126 Y107.599 E-0.14217
G1 X150.131 Y107.815 E-0.23525
G1 X149.212 Y107.846 E-0.21221
G1 E-0.07000 F2100.00000
G1 Z0.400 F10800.000
G1 X116.504 Y99.250
G1 Z0.200
G1 E1.40000 F2100.00000
G1 F1200.000
G1 X121.580 Y99.410 E0.15926
G1 X126.881 Y99.649 E0.16635
G1 X137.150 Y100.195 E0.32245
G1 X145.263 Y100.672 E0.25482
G1 X149.086 Y100.939 E0.12014
G1 X150.543 Y101.099 E0.04595
G1 X151.328 Y101.390 E0.02624
G1 X151.781 Y101.681 E0.01689
G1 X152.547 Y102.541 E0.03612
G1 X152.806 Y103.038 E0.01758
G1 X152.980 Y103.649 E0.01992
G1 X153.001 Y104.683 E0.03241
G1 X152.629 Y105.801 E0.03693
G1 X151.863 Y106.734 E0.03785
G1 X151.499 Y106.996 E0.01406
G1 X150.981 Y107.250 E0.01808
G1 X150.070 Y107.443 E0.02922
G1 X147.687 Y107.518 E0.07474
G1 X146.467 Y107.607 E0.03836
G1 F8640.000
G1 X147.687 Y107.518 E-0.28253
G1 X150.070 Y107.443 E-0.55044
G1 X150.981 Y107.250 E-0.21522
G1 X151.499 Y106.996 E-0.13314
G1 X151.863 Y106.734 E-0.10353
G1 X151.987 Y106.583 E-0.04514
G1 E-0.07000 F2100.00000
G1 Z0.400 F10800.000
G1 X140.786 Y108.283
G1 Z0.200
G1 E1.40000 F2100.00000
G1 F1200.000
G1 X133.786 Y109.339 E0.22195
G1 X131.302 Y109.691 E0.07867
G1 X128.734 Y110.014 E0.08116
G1 X126.224 Y110.281 E0.07913
G1 X123.668 Y110.498 E0.08042
G1 X121.146 Y110.656 E0.07923
G1 X118.668 Y110.751 E0.07775
G1 X116.286 Y110.784 E0.07470
G1 X113.898 Y110.752 E0.07487
G1 X111.748 Y110.658 E0.06747
G1 X109.661 Y110.498 E0.06566
G1 X107.649 Y110.267 E0.06349
G1 X105.930 Y109.998 E0.05456
G1 X104.259 Y109.660 E0.05344
G1 X102.687 Y109.252 E0.05091
G1 X101.441 Y108.846 E0.04111
G1 X100.219 Y108.336 E0.04151
G1 X99.142 Y107.734 E0.03871
G1 X98.109 Y106.894 E0.04171
G1 X97.535 Y106.152 E0.02942
G1 X97.138 Y105.289 E0.02980
G1 X96.993 Y104.177 E0.03516
G1 X97.155 Y103.268 E0.02893
G1 X97.565 Y102.397 E0.03017
G1 X98.215 Y101.653 E0.03100
G1 X99.133 Y101.028 E0.03480
G1 X100.195 Y100.567 E0.03631
G1 X101.314 Y100.232 E0.03661
G1 X102.583 Y99.952 E0.04076
G1 X104.024 Y99.716 E0.04579
G1 X105.771 Y99.511 E0.05515
G1 X107.636 Y99.366 E0.05866
G1 X109.570 Y99.273 E0.06068
G1 X111.682 Y99.223 E0.06626
G1 X114.047 Y99.216 E0.07416
G1 X116.504 Y99.250 E0.07702
G1 F8640.000
G1 X114.047 Y99.216 E-0.56720
G1 X111.682 Y99.223 E-0.54610
G1 X110.744 Y99.245 E-0.21670
G1 E-0.07000 F2100.00000
G1 Z0.400 F10800.000
G1 X146.411 Y106.855
G1 Z0.200
G1 E1.40000 F2100.00000
G1 F1200.000
G1 X144.585 Y107.031 E0.05752
G1 X142.729 Y107.255 E0.05863
G1 X140.658 Y107.539 E0.06555
G1 F8640.000
G1 X142.729 Y107.255 E-0.48270
G1 X144.585 Y107.031 E-0.43177
G1 X146.377 Y106.858 E-0.41554
G1 E-0.07000 F2100.00000
G1 Z0.400 F10800.000
G1 X150.956 Y106.002
G1 Z0.200
G1 E1.40000 F2100.00000
G1 F1200.000
G1 X150.551 Y106.201 E0.01416
G1 X149.899 Y106.324 E0.02080
G1 X147.630 Y106.388 E0.07119
G1 X146.195 Y106.492 E0.04510
G1 X144.544 Y106.656 E0.05202
G1 X142.681 Y106.881 E0.05885
G1 X140.563 Y107.172 E0.06702
G1 X133.620 Y108.220 E0.22016
G1 X131.148 Y108.570 E0.07829
G1 X128.601 Y108.890 E0.08047
G1 X126.110 Y109.155 E0.07855
G1 X123.579 Y109.371 E0.07966
G1 X121.083 Y109.526 E0.07842
G1 X118.632 Y109.621 E0.07690
G1 X116.278 Y109.653 E0.07380
G1 X113.939 Y109.621 E0.07335
G1 X111.807 Y109.529 E0.06692
G1 X109.779 Y109.373 E0.06377
G1 X107.790 Y109.144 E0.06279
G1 X106.117 Y108.882 E0.05308
G1 X104.499 Y108.555 E0.05177
G1 X102.989 Y108.162 E0.04891
G1 X101.814 Y107.778 E0.03877
G1 X100.685 Y107.305 E0.03837
G1 X99.810 Y106.820 E0.03136
G1 X98.960 Y106.145 E0.03403
G1 X98.493 Y105.549 E0.02376
G1 X98.203 Y104.900 E0.02225
G1 X98.123 Y104.281 E0.01958
G1 X98.228 Y103.628 E0.02073
G1 X98.502 Y103.032 E0.02057
G1 X98.915 Y102.545 E0.02002
G1 X99.724 Y101.995 E0.03068
G1 X100.570 Y101.634 E0.02885
G1 X101.578 Y101.332 E0.03300
G1 X102.782 Y101.066 E0.03864
G1 X104.169 Y100.838 E0.04408
G1 X105.877 Y100.637 E0.05393
G1 X107.699 Y100.495 E0.05729
G1 X109.603 Y100.404 E0.05977
G1 X111.692 Y100.354 E0.06549
G1 X114.036 Y100.347 E0.07352
G1 X116.473 Y100.381 E0.07641
G1 X121.541 Y100.540 E0.15898
G1 X126.823 Y100.778 E0.16577
G1 X137.086 Y101.325 E0.32224
G1 X145.194 Y101.801 E0.25467
G1 X148.996 Y102.067 E0.11949
G1 X150.344 Y102.215 E0.04251
G1 X150.857 Y102.420 E0.01732
G1 X151.088 Y102.577 E0.00878
G1 X151.626 Y103.198 E0.02574
G1 X151.734 Y103.402 E0.00726
G1 X151.871 Y103.887 E0.01578
G1 X151.878 Y104.542 E0.02056
G1 X151.623 Y105.280 E0.02447
G1 X151.107 Y105.892 E0.02511
G1 X151.005 Y105.967 E0.00396
G1 F8640.000
G1 X150.551 Y106.201 E-0.11796
G1 X149.899 Y106.324 E-0.15316
G1 X147.630 Y106.388 E-0.52425
